X:1
T:A Nation Once Again
M:4/4
L:1/4
K:G
 D3/4D/4-/4| DE/2-F/2 GF/2-G/2| B3/2 A/2 G F| E AG/2-F/2E/2-F/2| A G2|\
 D| DE/2-F/2 GF/2-G/2| B3/2 A/2 G F| E AG/2-F/2E/2-F/2| E D2| D| D E F3/2 G/2|\
 A D D3/2 D/2| E3/2 F/2 G A| B3|G/2-F/2| E E c3/2 B/2| A G F3/2 E/2|\
 D B A3/2 G/2| G3| D| B3/2 A/2 G F| E3 E| c3/2 B/2 A G| F3| E| DE/2-F/2 GF/2-G/2|\
 E A FG/2-A/2| B c A3/2 G/2| G3||
